X:1
T:Lew Trenchard, 77.77
T:Lew Trenchard, 77.77
T:Traditional English Tune
T:Public Domain Courtesy of the Cyber Hymnal™
C:Traditional English Tune
Z:Public Domain
Z:Courtesy of the Cyber Hymnal™
%%score ( 1 2 ) ( 3 4 )
L:1/8
Q:1/4=110
M:4/4
K:C
V:1 treble 
V:2 treble 
V:3 bass 
V:4 bass 
V:1
 [CE]2 (FE) [CD]2 [B,E]2 | [A,C]2 D2 [CE]4 | A2 ([GA][FB]) [Ec]2 [FB]2 | [EA]2 [E^G]2 [EA]4 | %4
 A2 (Bc) [Ae]2 [Fd]2 | [Ec]2 B2 [CA]4 | [CE]2 (FE) [EG]2 [DF]2 | [CE]2 [B,D]2 [CE]4 |] %8
V:2
 x2 C2 x4 | x2 D2 x4 | A2 x6 | x8 | A2 A2 x4 | x2 (ED) x4 | x2 B,2 x4 | x8 |] %8
V:3
 [C,G,]2 ([D,F,][E,G,]) [F,A,]2 G,2 | [A,C]2 [G,B,]2 [C,C]4 | [F,C]2 ([E,C][D,D]) [C,G,]2 [D,D]2 | %3
 [E,C]2 [E,B,]2 [A,,C]4 | [F,C]2 ([F,D][E,C]) [C,A,]2 [D,A,]2 | [E,A,]2 [E,^G,]2 [A,,A,]4 | %6
 A,2 [G,B,]2 [F,A,]2 [D,A,]2 | [E,G,]2 G,2 [C,G,]4 |] %8
V:4
 x6 G,2 | x8 | x8 | x8 | x8 | x8 | A,2 x6 | x2 G,2 x4 |] %8

